; generated by PrusaSlicer 2.1.0+linux64 on 2020-10-13 at 08:33:47 UTC

; 

; external perimeters extrusion width = 0.45mm
; perimeters extrusion width = 0.45mm
; infill extrusion width = 0.45mm
; solid infill extrusion width = 0.45mm
; top infill extrusion width = 0.40mm
; first layer extrusion width = 0.42mm

M73 P0 R88
M73 Q0 S90
M201 X1000 Y1000 Z1000 E5000 ; sets maximum accelerations, mm/sec^2
M203 X200 Y200 Z12 E120 ; sets maximum feedrates, mm/sec
M204 P1250 R1250 T1250 ; sets acceleration (P, T) and retract acceleration (R), mm/sec^2
M205 X8.00 Y8.00 Z0.40 E1.50 ; sets the jerk limits, mm/sec
M205 S0 T0 ; sets the minimum extruding and travel feed rate, mm/sec
M107
M862.3 P "MK3S" ; printer model check
M862.1 P0.4 ; nozzle diameter check
M115 U3.8.1 ; tell printer latest fw version
G90 ; use absolute coordinates
M83 ; extruder relative mode
M104 S210 ; set extruder temp
M140 S60 ; set bed temp
M190 S60 ; wait for bed temp
M109 S210 ; wait for extruder temp
G28 W ; home all without mesh bed level
G80 ; mesh bed leveling
G1 Y-3.0 F1000.0 ; go outside print area
G92 E0.0
G1 X60.0 E9.0 F1000.0 ; intro line
M73 Q0 S90
M73 P0 R88
G1 X100.0 E12.5 F1000.0 ; intro line
G92 E0.0
M221 S95
G21 ; set units to millimeters
G90 ; use absolute coordinates
M83 ; use relative distances for extrusion
M900 K30 ; Filament gcode
;BEFORE_LAYER_CHANGE
G92 E0.0
;0.2


G1 E-0.80000 F2100.00000
G1 Z0.600 F10800.000
;AFTER_LAYER_CHANGE
;0.2
G1 X71.531 Y52.997
G1 Z0.200
G1 E0.80000 F2100.00000
M204 S1000
G1 F1200
G1 X72.153 Y52.231 E0.03094
G1 X72.971 Y51.549 E0.03340
G1 X73.859 Y51.068 E0.03165
G1 X74.847 Y50.760 E0.03245
G1 X75.773 Y50.652 E0.02923
G1 X174.196 Y50.651 E3.08598
G1 X175.139 Y50.757 E0.02977
G1 X176.122 Y51.060 E0.03223
G1 X177.013 Y51.538 E0.03170
G1 X177.798 Y52.181 E0.03183
G1 X178.455 Y52.976 E0.03235
G1 X178.932 Y53.859 E0.03145
G1 X179.238 Y54.836 E0.03211
G1 X179.347 Y55.733 E0.02832
G1 X179.348 Y154.225 E3.08815
G1 X179.240 Y155.151 E0.02923
G1 X178.942 Y156.118 E0.03173
G1 X178.468 Y157.003 E0.03148
G1 X177.850 Y157.766 E0.03077
G1 X177.029 Y158.451 E0.03354
G1 X176.135 Y158.935 E0.03188
G1 X175.146 Y159.241 E0.03245
G1 X174.194 Y159.349 E0.03003
G1 X75.775 Y159.348 E3.08586
G1 X74.849 Y159.240 E0.02923
G1 X73.882 Y158.942 E0.03173
G1 X72.994 Y158.466 E0.03160
G1 X72.234 Y157.850 E0.03066
G1 X71.549 Y157.029 E0.03354
G1 X71.065 Y156.135 E0.03188
G1 X70.758 Y155.146 E0.03246
G1 X70.651 Y154.194 E0.03003
G1 X70.652 Y55.775 E3.08586
G1 X70.759 Y54.854 E0.02909
G1 X71.058 Y53.882 E0.03188
G1 X71.503 Y53.050 E0.02957
G1 F8640
G1 X72.153 Y52.231 E-0.24149
G1 X72.971 Y51.549 E-0.24596
G1 X73.859 Y51.068 E-0.23307
G1 X74.022 Y51.017 E-0.03948
G1 E-0.04000 F2100.00000
G1 Z0.800 F10800.000
G1 X131.080 Y111.080
G1 Z0.200
G1 E0.80000 F2100.00000
G1 F1200
G1 X162.259 Y111.080 E0.97760
G1 X162.259 Y142.259 E0.97760
G1 X131.080 Y142.259 E0.97760
G1 X131.080 Y111.140 E0.97572
G1 X131.457 Y111.457 F10800.000
G1 F1200
G1 X161.882 Y111.457 E0.95395
G1 X161.882 Y141.882 E0.95395
G1 X131.457 Y141.882 E0.95395
G1 X131.457 Y111.517 E0.95207
G1 X131.353 Y111.071 F10800.000
G1 F8640
G1 X134.748 Y111.511 E-0.76000
G1 E-0.04000 F2100.00000
G1 Z0.800 F10800.000
G1 X131.080 Y67.741
G1 Z0.200
G1 E0.80000 F2100.00000
G1 F1200
G1 X162.259 Y67.741 E0.97760
G1 X162.259 Y98.920 E0.97760
G1 X131.080 Y98.920 E0.97760
G1 X131.080 Y67.801 E0.97572
G1 X131.457 Y68.118 F10800.000
G1 F1200
G1 X161.882 Y68.118 E0.95395
G1 X161.882 Y98.543 E0.95395
G1 X131.457 Y98.543 E0.95395
G1 X131.457 Y68.178 E0.95207
G1 X131.353 Y67.732 F10800.000
G1 F8640
G1 X134.748 Y68.172 E-0.76000
G1 E-0.04000 F2100.00000
G1 Z0.800 F10800.000
G1 X87.740 Y67.741
G1 Z0.200
G1 E0.80000 F2100.00000
G1 F1200
G1 X118.919 Y67.741 E0.97760
G1 X118.919 Y98.920 E0.97760
G1 X87.740 Y98.920 E0.97760
G1 X87.740 Y67.801 E0.97572
G1 X88.117 Y68.118 F10800.000
G1 F1200
G1 X118.542 Y68.118 E0.95395
G1 X118.542 Y98.543 E0.95395
M73 Q1 S89
M73 P1 R87
G1 X88.117 Y98.543 E0.95395
G1 X88.117 Y68.178 E0.95207
G1 X88.013 Y67.732 F10800.000
G1 F8640
G1 X91.408 Y68.172 E-0.76000
G1 E-0.04000 F2100.00000
G1 Z0.800 F10800.000
G1 X87.740 Y111.080
G1 Z0.200
G1 E0.80000 F2100.00000
G1 F1200
G1 X118.919 Y111.080 E0.97760
G1 X118.919 Y142.259 E0.97760
G1 X87.740 Y142.259 E0.97760
G1 X87.740 Y111.140 E0.97572
G1 X88.117 Y111.457 F10800.000
G1 F1200
G1 X118.542 Y111.457 E0.95395
G1 X118.542 Y141.882 E0.95395
G1 X88.117 Y141.882 E0.95395
G1 X88.117 Y111.517 E0.95207
G1 X88.013 Y111.071 F10800.000
G1 F8640
G1 X91.408 Y111.511 E-0.76000
G1 E-0.04000 F2100.00000
G1 Z0.800 F10800.000
G1 X73.427 Y111.517
G1 Z0.200
G1 E0.80000 F2100.00000
G1 F1200
G1 X73.427 Y55.843 E1.74563
G1 X73.478 Y55.416 E0.01347
G1 X73.534 Y55.189 E0.00735
G1 X73.721 Y54.739 E0.01527
G1 X73.846 Y54.530 E0.00762
G1 X73.990 Y54.335 E0.00762
G1 X74.335 Y53.990 E0.01529
G1 X74.739 Y53.721 E0.01522
G1 X75.189 Y53.534 E0.01527
G1 X75.416 Y53.478 E0.00735
G1 X75.843 Y53.427 E0.01347
G1 X174.160 Y53.432 E3.08268
G1 X174.587 Y53.478 E0.01345
G1 X174.811 Y53.534 E0.00726
G1 X175.261 Y53.721 E0.01527
G1 X175.470 Y53.846 E0.00762
G1 X175.665 Y53.990 E0.00762
G1 X176.010 Y54.335 E0.01529
G1 X176.279 Y54.739 E0.01522
G1 X176.466 Y55.189 E0.01527
G1 X176.522 Y55.416 E0.00735
G1 X176.573 Y55.843 E0.01347
G1 X176.573 Y154.157 E3.08259
G1 X176.522 Y154.584 E0.01347
G1 X176.466 Y154.811 E0.00735
G1 X176.279 Y155.261 E0.01527
G1 X176.154 Y155.470 E0.00762
G1 X176.010 Y155.665 E0.00762
G1 X175.665 Y156.010 E0.01529
G1 X175.261 Y156.279 E0.01522
G1 X174.811 Y156.466 E0.01527
G1 X174.584 Y156.522 E0.00735
G1 X174.157 Y156.573 E0.01347
G1 X75.843 Y156.573 E3.08259
G1 X75.416 Y156.522 E0.01347
G1 X74.959 Y156.383 E0.01499
G1 X74.739 Y156.279 E0.00762
G1 X74.335 Y156.010 E0.01522
G1 X73.990 Y155.665 E0.01529
G1 X73.846 Y155.470 E0.00762
G1 X73.721 Y155.261 E0.00762
G1 X73.534 Y154.811 E0.01527
G1 X73.478 Y154.584 E0.00735
G1 X73.427 Y154.157 E0.01347
G1 X73.427 Y111.577 E1.33508
G1 X73.050 Y111.577 F10800.000
G1 F1200
G1 X73.050 Y55.820 E1.74821
G1 X73.106 Y55.348 E0.01492
G1 X73.173 Y55.079 E0.00869
G1 X73.268 Y54.814 E0.00882
G1 X73.387 Y54.561 E0.00878
G1 X73.532 Y54.321 E0.00879
G1 X73.698 Y54.095 E0.00879
G1 X73.888 Y53.888 E0.00881
G1 X74.095 Y53.698 E0.00881
G1 X74.321 Y53.532 E0.00879
G1 X74.561 Y53.387 E0.00879
G1 X74.814 Y53.268 E0.00878
G1 X75.079 Y53.173 E0.00882
G1 X75.348 Y53.106 E0.00869
G1 X75.820 Y53.050 E0.01492
G1 X174.181 Y53.055 E3.08402
G1 X174.653 Y53.106 E0.01490
G1 X174.921 Y53.173 E0.00866
G1 X175.186 Y53.268 E0.00882
G1 X175.439 Y53.387 E0.00878
G1 X175.679 Y53.532 E0.00879
G1 X175.905 Y53.698 E0.00879
G1 X176.112 Y53.888 E0.00881
G1 X176.302 Y54.095 E0.00881
G1 X176.468 Y54.321 E0.00879
G1 X176.613 Y54.561 E0.00879
G1 X176.732 Y54.814 E0.00878
G1 X176.827 Y55.079 E0.00882
G1 X176.894 Y55.348 E0.00869
G1 X176.950 Y55.820 E0.01492
G1 X176.950 Y154.180 E3.08398
G1 X176.894 Y154.652 E0.01492
G1 X176.827 Y154.921 E0.00869
G1 X176.732 Y155.186 E0.00882
G1 X176.613 Y155.439 E0.00878
G1 X176.468 Y155.679 E0.00879
G1 X176.302 Y155.905 E0.00879
G1 X176.112 Y156.112 E0.00881
G1 X175.905 Y156.302 E0.00881
G1 X175.679 Y156.468 E0.00879
G1 X175.439 Y156.613 E0.00879
G1 X175.186 Y156.732 E0.00878
G1 X174.921 Y156.827 E0.00882
G1 X174.652 Y156.894 E0.00869
G1 X174.180 Y156.950 E0.01492
G1 X75.820 Y156.950 E3.08398
G1 X75.348 Y156.894 E0.01492
G1 X75.079 Y156.827 E0.00869
G1 X74.814 Y156.732 E0.00882
G1 X74.561 Y156.613 E0.00878
G1 X74.321 Y156.468 E0.00879
G1 X74.095 Y156.302 E0.00879
G1 X73.888 Y156.112 E0.00881
G1 X73.698 Y155.905 E0.00881
G1 X73.532 Y155.679 E0.00879
G1 X73.387 Y155.439 E0.00879
G1 X73.268 Y155.186 E0.00878
G1 X73.173 Y154.921 E0.00882
G1 X73.106 Y154.652 E0.00869
G1 X73.050 Y154.180 E0.01492
G1 X73.050 Y111.637 E1.33389
G1 X73.396 Y111.377 F10800.000
G1 F8640
G1 X73.050 Y108.346 E-0.76000
G1 E-0.04000 F2100.00000
G1 Z0.800 F10800.000
G1 X99.164 Y110.967
G1 Z0.200
G1 E0.80000 F2100.00000
G1 F1200
G1 X73.710 Y85.513 E1.13128
M73 Q2 S88
M73 P2 R86
G1 X73.710 Y86.048 E0.01680
G1 X98.459 Y110.797 E1.09999
G1 X97.925 Y110.797 E0.01680
G1 X73.710 Y86.582 E1.07623
G1 X73.710 Y87.117 E0.01680
G1 X97.390 Y110.797 E1.05247
G1 X96.856 Y110.797 E0.01680
G1 X73.710 Y87.651 E1.02872
G1 X73.710 Y88.186 E0.01680
G1 X96.321 Y110.797 E1.00496
G1 X95.787 Y110.797 E0.01680
G1 X73.710 Y88.720 E0.98121
G1 X73.710 Y89.255 E0.01680
G1 X95.252 Y110.797 E0.95745
G1 X94.718 Y110.797 E0.01680
G1 X73.710 Y89.789 E0.93369
G1 X73.710 Y90.324 E0.01680
G1 X94.183 Y110.797 E0.90994
G1 X93.649 Y110.797 E0.01680
G1 X73.710 Y90.858 E0.88618
G1 X73.710 Y91.393 E0.01680
G1 X93.114 Y110.797 E0.86243
G1 X92.580 Y110.797 E0.01680
G1 X73.710 Y91.927 E0.83867
G1 X73.710 Y92.462 E0.01680
G1 X92.045 Y110.797 E0.81491
G1 X91.511 Y110.797 E0.01680
G1 X73.710 Y92.996 E0.79116
G1 X73.710 Y93.531 E0.01680
G1 X90.976 Y110.797 E0.76740
G1 X90.442 Y110.797 E0.01680
G1 X73.710 Y94.065 E0.74365
G1 X73.710 Y94.600 E0.01680
G1 X89.907 Y110.797 E0.71989
G1 X89.373 Y110.797 E0.01680
G1 X73.710 Y95.134 E0.69613
G1 X73.710 Y95.669 E0.01680
G1 X88.838 Y110.797 E0.67238
G1 X88.304 Y110.797 E0.01680
G1 X73.710 Y96.203 E0.64862
G1 X73.710 Y96.738 E0.01680
G1 X87.769 Y110.797 E0.62486
G1 X87.457 Y110.797 E0.00981
G1 X87.457 Y111.020 E0.00699
G1 X73.710 Y97.272 E0.61099
G1 X73.710 Y97.807 E0.01680
G1 X87.457 Y111.554 E0.61099
G1 X87.457 Y112.089 E0.01680
G1 X73.710 Y98.341 E0.61099
G1 X73.710 Y98.876 E0.01680
G1 X87.457 Y112.623 E0.61099
G1 X87.457 Y113.158 E0.01680
G1 X73.710 Y99.410 E0.61099
G1 X73.710 Y99.945 E0.01680
G1 X87.457 Y113.692 E0.61099
G1 X87.457 Y114.227 E0.01680
G1 X73.710 Y100.479 E0.61099
G1 X73.710 Y101.014 E0.01680
G1 X87.457 Y114.761 E0.61099
G1 X87.457 Y115.296 E0.01680
G1 X73.710 Y101.548 E0.61099
G1 X73.710 Y102.083 E0.01680
G1 X87.457 Y115.830 E0.61099
G1 X87.457 Y116.365 E0.01680
G1 X73.710 Y102.617 E0.61099
G1 X73.710 Y103.152 E0.01680
G1 X87.457 Y116.899 E0.61099
G1 X87.457 Y117.434 E0.01680
G1 X73.710 Y103.686 E0.61099
G1 X73.710 Y104.221 E0.01680
G1 X87.457 Y117.968 E0.61099
G1 X87.457 Y118.503 E0.01680
G1 X73.710 Y104.755 E0.61099
G1 X73.710 Y105.290 E0.01680
G1 X87.457 Y119.037 E0.61099
G1 X87.457 Y119.572 E0.01680
G1 X73.710 Y105.824 E0.61099
G1 X73.710 Y106.359 E0.01680
G1 X87.457 Y120.106 E0.61099
G1 X87.457 Y120.641 E0.01680
G1 X73.710 Y106.893 E0.61099
G1 X73.710 Y107.428 E0.01680
G1 X87.457 Y121.175 E0.61099
G1 X87.457 Y121.710 E0.01680
G1 X73.710 Y107.962 E0.61099
G1 X73.710 Y108.497 E0.01680
G1 X87.457 Y122.244 E0.61099
G1 X87.457 Y122.779 E0.01680
G1 X73.710 Y109.031 E0.61099
G1 X73.710 Y109.566 E0.01680
G1 X87.457 Y123.313 E0.61099
G1 X87.457 Y123.848 E0.01680
G1 X73.710 Y110.100 E0.61099
G1 X73.710 Y110.635 E0.01680
G1 X87.457 Y124.382 E0.61099
G1 X87.457 Y124.917 E0.01680
G1 X73.710 Y111.169 E0.61099
G1 X73.710 Y111.704 E0.01680
G1 X87.457 Y125.451 E0.61099
G1 X87.457 Y125.986 E0.01680
G1 X73.710 Y112.238 E0.61099
G1 X73.710 Y112.773 E0.01680
G1 X87.457 Y126.520 E0.61099
G1 X87.457 Y127.055 E0.01680
G1 X73.710 Y113.308 E0.61099
M73 Q3 S87
M73 P3 R85
G1 X73.710 Y113.842 E0.01680
G1 X87.457 Y127.589 E0.61099
G1 X87.457 Y128.124 E0.01680
G1 X73.710 Y114.377 E0.61099
G1 X73.710 Y114.911 E0.01680
G1 X87.457 Y128.658 E0.61099
G1 X87.457 Y129.193 E0.01680
G1 X73.710 Y115.446 E0.61099
G1 X73.710 Y115.980 E0.01680
G1 X87.457 Y129.727 E0.61099
G1 X87.457 Y130.262 E0.01680
G1 X73.710 Y116.515 E0.61099
G1 X73.710 Y117.049 E0.01680
G1 X87.457 Y130.796 E0.61099
G1 X87.457 Y131.331 E0.01680
G1 X73.710 Y117.584 E0.61099
G1 X73.710 Y118.118 E0.01680
G1 X87.457 Y131.865 E0.61099
G1 X87.457 Y132.400 E0.01680
G1 X73.710 Y118.653 E0.61099
G1 X73.710 Y119.187 E0.01680
G1 X87.457 Y132.934 E0.61099
G1 X87.457 Y133.469 E0.01680
G1 X73.710 Y119.722 E0.61099
G1 X73.710 Y120.256 E0.01680
G1 X87.457 Y134.003 E0.61099
G1 X87.457 Y134.538 E0.01680
G1 X73.710 Y120.791 E0.61099
G1 X73.710 Y121.325 E0.01680
G1 X87.457 Y135.072 E0.61099
G1 X87.457 Y135.607 E0.01680
G1 X73.710 Y121.860 E0.61099
G1 X73.710 Y122.394 E0.01680
G1 X87.457 Y136.141 E0.61099
G1 X87.457 Y136.676 E0.01680
G1 X73.710 Y122.929 E0.61099
G1 X73.710 Y123.463 E0.01680
G1 X87.457 Y137.210 E0.61099
G1 X87.457 Y137.745 E0.01680
G1 X73.710 Y123.998 E0.61099
G1 X73.710 Y124.532 E0.01680
G1 X87.457 Y138.279 E0.61099
G1 X87.457 Y138.814 E0.01680
G1 X73.710 Y125.067 E0.61099
G1 X73.710 Y125.601 E0.01680
G1 X87.457 Y139.348 E0.61099
G1 X87.457 Y139.883 E0.01680
G1 X73.710 Y126.136 E0.61099
G1 X73.710 Y126.670 E0.01680
G1 X87.457 Y140.418 E0.61099
G1 X87.457 Y140.952 E0.01680
G1 X73.710 Y127.205 E0.61099
G1 X73.710 Y127.739 E0.01680
G1 X87.457 Y141.487 E0.61099
G1 X87.457 Y142.021 E0.01680
G1 X73.710 Y128.274 E0.61099
G1 X73.710 Y128.808 E0.01680
G1 X101.192 Y156.290 E1.22142
G1 X101.726 Y156.290 E0.01680
G1 X87.978 Y142.542 E0.61104
G1 X88.512 Y142.542 E0.01680
G1 X102.261 Y156.290 E0.61104
G1 X102.795 Y156.290 E0.01680
G1 X89.047 Y142.542 E0.61104
G1 X89.581 Y142.542 E0.01680
G1 X103.330 Y156.290 E0.61104
G1 X103.864 Y156.290 E0.01680
G1 X90.116 Y142.542 E0.61104
G1 X90.651 Y142.542 E0.01680
G1 X104.399 Y156.290 E0.61104
G1 X104.933 Y156.290 E0.01680
G1 X91.185 Y142.542 E0.61104
G1 X91.720 Y142.542 E0.01680
G1 X105.468 Y156.290 E0.61104
G1 X106.002 Y156.290 E0.01680
G1 X92.254 Y142.542 E0.61104
G1 X92.789 Y142.542 E0.01680
G1 X106.537 Y156.290 E0.61104
G1 X107.071 Y156.290 E0.01680
G1 X93.323 Y142.542 E0.61104
G1 X93.858 Y142.542 E0.01680
G1 X107.606 Y156.290 E0.61104
G1 X108.140 Y156.290 E0.01680
G1 X94.392 Y142.542 E0.61104
G1 X94.927 Y142.542 E0.01680
G1 X108.675 Y156.290 E0.61104
G1 X109.209 Y156.290 E0.01680
G1 X95.461 Y142.542 E0.61104
G1 X95.996 Y142.542 E0.01680
G1 X109.744 Y156.290 E0.61104
G1 X110.278 Y156.290 E0.01680
G1 X96.530 Y142.542 E0.61104
G1 X97.065 Y142.542 E0.01680
G1 X110.813 Y156.290 E0.61104
G1 X111.347 Y156.290 E0.01680
G1 X97.599 Y142.542 E0.61104
G1 X98.134 Y142.542 E0.01680
G1 X111.882 Y156.290 E0.61104
G1 X112.416 Y156.290 E0.01680
G1 X98.668 Y142.542 E0.61104
G1 X99.203 Y142.542 E0.01680
G1 X112.951 Y156.290 E0.61104
G1 X113.485 Y156.290 E0.01680
G1 X99.737 Y142.542 E0.61104
G1 X100.272 Y142.542 E0.01680
G1 X114.020 Y156.290 E0.61104
G1 X114.554 Y156.290 E0.01680
G1 X100.806 Y142.542 E0.61104
G1 X101.341 Y142.542 E0.01680
G1 X115.089 Y156.290 E0.61104
G1 X115.623 Y156.290 E0.01680
G1 X101.875 Y142.542 E0.61104
G1 X102.410 Y142.542 E0.01680
G1 X116.158 Y156.290 E0.61104
G1 X116.692 Y156.290 E0.01680
G1 X102.944 Y142.542 E0.61104
G1 X103.479 Y142.542 E0.01680
G1 X117.227 Y156.290 E0.61104
M73 Q4 S86
M73 P4 R84
G1 X117.762 Y156.290 E0.01680
G1 X104.013 Y142.542 E0.61104
G1 X104.548 Y142.542 E0.01680
G1 X118.296 Y156.290 E0.61104
G1 X118.831 Y156.290 E0.01680
G1 X105.082 Y142.542 E0.61104
G1 X105.617 Y142.542 E0.01680
G1 X119.365 Y156.290 E0.61104
G1 X119.900 Y156.290 E0.01680
G1 X106.151 Y142.542 E0.61104
G1 X106.686 Y142.542 E0.01680
G1 X120.434 Y156.290 E0.61104
G1 X120.969 Y156.290 E0.01680
G1 X107.220 Y142.542 E0.61104
G1 X107.755 Y142.542 E0.01680
G1 X121.503 Y156.290 E0.61104
G1 X122.038 Y156.290 E0.01680
G1 X108.289 Y142.542 E0.61104
G1 X108.824 Y142.542 E0.01680
G1 X122.572 Y156.290 E0.61104
G1 X123.107 Y156.290 E0.01680
G1 X109.358 Y142.542 E0.61104
G1 X109.893 Y142.542 E0.01680
G1 X123.641 Y156.290 E0.61104
G1 X124.176 Y156.290 E0.01680
G1 X110.427 Y142.542 E0.61104
G1 X110.962 Y142.542 E0.01680
G1 X124.710 Y156.290 E0.61104
G1 X125.245 Y156.290 E0.01680
G1 X111.496 Y142.542 E0.61104
G1 X112.031 Y142.542 E0.01680
G1 X125.779 Y156.290 E0.61104
G1 X126.314 Y156.290 E0.01680
G1 X112.565 Y142.542 E0.61104
G1 X113.100 Y142.542 E0.01680
G1 X126.848 Y156.290 E0.61104
G1 X127.383 Y156.290 E0.01680
G1 X113.634 Y142.542 E0.61104
G1 X114.169 Y142.542 E0.01680
G1 X127.917 Y156.290 E0.61104
G1 X128.452 Y156.290 E0.01680
G1 X114.703 Y142.542 E0.61104
G1 X115.238 Y142.542 E0.01680
G1 X128.986 Y156.290 E0.61104
G1 X129.521 Y156.290 E0.01680
G1 X115.772 Y142.542 E0.61104
G1 X116.307 Y142.542 E0.01680
G1 X130.055 Y156.290 E0.61104
G1 X130.590 Y156.290 E0.01680
G1 X116.841 Y142.542 E0.61104
